img/practices.svg

<svg width="128pt" height="128pt" viewBox="0 0 128 128" xmlns="http://www.w3.org/2000/svg"><g fill="#fff"><path d="M30.39 10.35C42.08 2.98 56.24-.36 69.99 1c15.04 1.29 29.43 8.31 39.86 19.19 11.52 11.82 18.15 28.32 17.74 44.85.08 17.61-7.93 34.93-21.04 46.62-10.69 9.78-24.82 15.35-39.21 16.34h-6.4c-6.17-.59-12.37-1.52-18.19-3.72-17.05-5.94-31.19-19.59-37.81-36.37-5.63-14-5.99-30.03-1.07-44.29 4.69-13.69 14.22-25.66 26.52-33.27m24.09-4.67C37.86 8.34 22.63 18.46 13.75 32.76 4.71 46.91 2.29 64.99 7.05 81.07c4.47 15.46 15.57 28.85 29.93 36.12 12.83 6.67 28.16 8.23 42.12 4.6 14.38-3.69 27.15-13.08 35.07-25.6 8.49-13.27 11.44-30 7.73-45.32-3.38-14.8-12.73-28.1-25.48-36.33-12.22-8.06-27.5-11.2-41.94-8.86z"/><path d="M51.54 37.56c8.12-.18 16.26-.06 24.39-.06 1.72-.05 3.09 1.7 2.82 3.37-.24 3.16.85 6.72-1.03 9.53 6.08-.12 12.17-.07 18.26-.06 1.47-.15 3.32.87 3.01 2.58.05 12.1-.05 24.21.05 36.32-.95.63-1.88 1.45-3.1 1.28-21.29.01-42.58.01-63.86-.01-1.25.18-2.17-.66-3.11-1.31.08-12.1-.01-24.2.04-36.3-.26-1.71 1.58-2.72 3.06-2.56 6.09-.01 12.19-.05 18.28.04-1.76-2.09-.94-4.94-1.14-7.42-.04-1.98-.22-4.94 2.33-5.4m.96 3.73c0 3.01 0 6.03.01 9.04h22.74c.01-3.01 0-6.02.01-9.03-7.58-.04-15.17-.02-22.76-.01z"/></g></svg>

<?xml version="1.0" encoding="UTF-8" ?>
<!DOCTYPE svg PUBLIC "-//W3C//DTD SVG 1.1//EN" "http://www.w3.org/Graphics/SVG/1.1/DTD/svg11.dtd">
<svg width="128pt" height="128pt" viewBox="0 0 128 128" version="1.1" xmlns="http://www.w3.org/2000/svg">
<g id="#ffffffff">
<path fill="#ffffff" opacity="1.00" d=" M 30.39 10.35 C 42.08 2.98 56.24 -0.36 69.99 1.00 C 85.03 2.29 99.42 9.31 109.85 20.19 C 121.37 32.01 128.00 48.51 127.59 65.04 C 127.67 82.65 119.66 99.97 106.55 111.66 C 95.86 121.44 81.73 127.01 67.34 128.00 L 60.94 128.00 C 54.77 127.41 48.57 126.48 42.75 124.28 C 25.70 118.34 11.56 104.69 4.94 87.91 C -0.69 73.91 -1.05 57.88 3.87 43.62 C 8.56 29.93 18.09 17.96 30.39 10.35 M 54.48 5.68 C 37.86 8.34 22.63 18.46 13.75 32.76 C 4.71 46.91 2.29 64.99 7.05 81.07 C 11.52 96.53 22.62 109.92 36.98 117.19 C 49.81 123.86 65.14 125.42 79.10 121.79 C 93.48 118.10 106.25 108.71 114.17 96.19 C 122.66 82.92 125.61 66.19 121.90 50.87 C 118.52 36.07 109.17 22.77 96.42 14.54 C 84.20 6.48 68.92 3.34 54.48 5.68 Z" />
<path fill="#ffffff" opacity="1.00" d=" M 51.54 37.56 C 59.66 37.38 67.80 37.50 75.93 37.50 C 77.65 37.45 79.02 39.20 78.75 40.87 C 78.51 44.03 79.60 47.59 77.72 50.40 C 83.80 50.28 89.89 50.33 95.98 50.34 C 97.45 50.19 99.30 51.21 98.99 52.92 C 99.04 65.02 98.94 77.13 99.04 89.24 C 98.09 89.87 97.16 90.69 95.94 90.52 C 74.65 90.53 53.36 90.53 32.08 90.51 C 30.83 90.69 29.91 89.85 28.97 89.20 C 29.05 77.10 28.96 65.00 29.01 52.90 C 28.75 51.19 30.59 50.18 32.07 50.34 C 38.16 50.33 44.26 50.29 50.35 50.38 C 48.59 48.29 49.41 45.44 49.21 42.96 C 49.17 40.98 48.99 38.02 51.54 37.56 M 52.50 41.29 C 52.50 44.30 52.50 47.32 52.51 50.33 C 60.09 50.33 67.67 50.33 75.25 50.33 C 75.26 47.32 75.25 44.31 75.26 41.30 C 67.68 41.26 60.09 41.28 52.50 41.29 Z" />
</g>
</svg>
